X:1
T:Title
%%score { 1 | 2 }
L:1/8
Q:1/4=107
M:6/8
K:E
V:1 treble nm="Grand Piano"
V:2 bass 
V:1
 G2 G G2 [GB] | [GB]2 [FA] [FA]3 | [DF]2 [EG] [FA]2 [GB] | [Ac]3 [GB]3 | G2 G G2 [GB] | %5
w: E.~O.~Excell * * *|||||
 [GB]2 [FA] [FA]3 | [DF]2 [EG] [FA]2 [EG] | F3 E3 | E2 E F2 [DF] | [DG]2 [DF] E3 | %10
w: |||||
 G2 G [FA]2 [FA] | [GB]2 [FA] [EG]3 | [Ge]2 [GB] [Bd]2 [Ac] | [GB]2 [AB] B3 | B2 A G2 E | F3 E3 | %16
w: ||||||
 G2 G G2 G | A3 A3 | [FA]2 [FA] G2 A | [GB]3 [GB]3 | [Ge]2 [GB] [Bd]2 [Ac] | [GB]2 [AB] B3 | %22
w: ||||||
 B2 A G2 E |[M:7/4] F3 E3 z2 z2 z4 |] %24
w: ||
V:2
 [E,B,E]2 [E,B,E] [E,B,E]2 [E,B,] | [B,,B,]2 [B,,B,] [B,,B,]3 | [B,,B,]2 [B,,B,] [B,,B,]2 [B,,B,] | %3
 [E,B,]3 [E,E]3 | [E,B,E]2 [E,B,E] [E,B,E]2 [E,B,] | [B,,B,]2 [B,,B,] [B,,B,]3 | %6
 [B,,B,]2 [B,,B,] [B,,B,]2 [B,,B,] | [B,,A,B,]3 [E,G,B,]3 | [E,G,B,]2 [E,G,B,] [B,,A,B,]2 [B,,A,] | %9
 [B,,B,]2 [B,,A,] [E,G,]3 | [E,B,E]2 [E,B,E] [B,,B,]2 [B,,B,] | [B,,B,]2 [B,,B,] [E,B,]3 | %12
 [E,B,]2 [E,E] [A,E]2 [A,E] | [E,E]2 [F,D] [G,=DE]3 | [A,CE]2 [A,CE] [B,E]2 [B,,G,B,] | %15
 [B,,A,B,]3 [E,G,B,]3 | [E,B,E]2 [E,B,E] [E,B,E]2 [E,B,E] | [F,B,D]3 [F,B,D]3 | %18
 [B,,B,]2 [B,,B,][K:treble] [B,E]2 [B,DF] | [E,E]3 [E,B,]3 | [E,B,]2 [E,E] [A,E]2 [A,E] | %21
 [E,E]2 [F,D] [G,=DE]3 | [A,CE]2 [A,CE] [B,E]2 [B,,G,B,] |[M:7/4] [B,,A,B,]3 [E,G,B,]3 z2 z2 z4 |] %24

